svgs/duotone/gauge-circle-bolt.svg

<svg xmlns="http://www.w3.org/2000/svg" viewBox="0 0 640 512"><!--! Font Awesome Pro 6.4.0 by @fontawesome - https://fontawesome.com License - https://fontawesome.com/license (Commercial License) Copyright 2023 Fonticons, Inc. --><defs><style>.fa-secondary{opacity:.4}</style></defs><path class="fa-primary" d="M352 368a144 144 0 1 1 288 0 144 144 0 1 1 -288 0zm194.5-66.2c2.8-5 1.7-11.1-2.6-14.9s-10.6-4-15.1-.6l-96 72c-4.1 3.1-5.8 8.5-4.2 13.4s6.2 8.2 11.4 8.2h35.6l-30.1 54.2c-2.8 5-1.7 11.1 2.6 14.9s10.6 4 15.1 .6l96-72c4.1-3.1 5.8-8.5 4.2-13.4s-6.2-8.2-11.4-8.2H516.4l30.1-54.2z"/><path class="fa-secondary" d="M504 192.2c-2.6-.1-5.3-.2-8-.2c-97.2 0-176 78.8-176 176c0 45.9 17.6 87.7 46.4 119C333 503 295.5 512 256 512C114.6 512 0 397.4 0 256S114.6 0 256 0C375.4 0 475.6 81.7 504 192.2zM256 416c35.3 0 64-28.7 64-64c0-26.9-16.5-49.9-40-59.3V88c0-13.3-10.7-24-24-24s-24 10.7-24 24V292.7c-23.5 9.5-40 32.5-40 59.3c0 35.3 28.7 64 64 64zM176 144a32 32 0 1 0 -64 0 32 32 0 1 0 64 0zM96 288a32 32 0 1 0 0-64 32 32 0 1 0 0 64zM368 176a32 32 0 1 0 0-64 32 32 0 1 0 0 64z"/></svg>

<svg xmlns="http://www.w3.org/2000/svg" viewBox="0 0 640 512"><!--! Font Awesome Pro 6.3.0 by @fontawesome - https://fontawesome.com License - https://fontawesome.com/license (Commercial License) Copyright 2023 Fonticons, Inc. --><defs><style>.fa-secondary{opacity:.4}</style></defs><path class="fa-primary" d="M640 368C640 447.5 575.5 512 496 512C416.5 512 352 447.5 352 368C352 288.5 416.5 224 496 224C575.5 224 640 288.5 640 368zM546.5 301.8C549.2 296.9 548.2 290.7 543.9 286.1C539.6 283.2 533.3 283 528.8 286.4L432.8 358.4C428.7 361.5 426.1 366.9 428.6 371.8C430.2 376.7 434.8 380 440 380H475.6L445.5 434.2C442.8 439.1 443.8 445.3 448.1 449C452.4 452.8 458.7 452.1 463.2 449.6L559.2 377.6C563.3 374.5 565 369.1 563.4 364.2C561.8 359.3 557.2 356 552 356H516.4L546.5 301.8z"/><path class="fa-secondary" d="M503.1 192.2C501.3 192.1 498.7 192 496 192C398.8 192 320 270.8 320 368C320 413.9 337.6 455.7 366.4 487C332.1 503 295.5 512 256 512C114.6 512 0 397.4 0 256C0 114.6 114.6 0 256 0C375.4 0 475.6 81.67 503.1 192.2zM256 416C291.3 416 320 387.3 320 352C320 325.1 303.5 302.1 280 292.7V88C280 74.75 269.3 64 256 64C242.7 64 232 74.75 232 88V292.7C208.5 302.1 192 325.1 192 352C192 387.3 220.7 416 256 416zM144 112C126.3 112 112 126.3 112 144C112 161.7 126.3 176 144 176C161.7 176 176 161.7 176 144C176 126.3 161.7 112 144 112zM96 288C113.7 288 128 273.7 128 256C128 238.3 113.7 224 96 224C78.33 224 64 238.3 64 256C64 273.7 78.33 288 96 288zM368 176C385.7 176 400 161.7 400 144C400 126.3 385.7 112 368 112C350.3 112 336 126.3 336 144C336 161.7 350.3 176 368 176z"/></svg>
